Newaita-dark/apps/64/gmail.svg

<svg height="64" viewBox="0 0 64 64" width="64" xmlns="http://www.w3.org/2000/svg" xmlns:xlink="http://www.w3.org/1999/xlink"><linearGradient id="a" gradientUnits="userSpaceOnUse" x1="31.75304" x2="31.75304" y1="53.421788" y2="56.06787600006"><stop offset="0" stop-opacity=".27451"/><stop offset="1" stop-opacity="0"/></linearGradient><linearGradient id="b"><stop offset="0" stop-opacity=".313726"/><stop offset=".222222" stop-opacity=".27451"/><stop offset="1" stop-opacity="0"/></linearGradient><radialGradient id="c" cx="450.908936" cy="189.579361" gradientTransform="matrix(.00000035 -.156265 -.281277 -.0000002 106.907381 124.54458)" gradientUnits="userSpaceOnUse" r="21.166656" xlink:href="#b"/><radialGradient id="d" cx="450.908936" cy="189.579361" gradientTransform="matrix(-.00000035 .156265 .281277 .0000002 -43.401323 -17.701042)" gradientUnits="userSpaceOnUse" r="21.166656" xlink:href="#b"/><radialGradient id="e" cx="450.908936" cy="189.579361" gradientTransform="matrix(-.00000035 -.156265 .281277 -.0000002 -43.401323 124.54458)" gradientUnits="userSpaceOnUse" r="21.166656" xlink:href="#b"/><radialGradient id="f" cx="450.908936" cy="189.579361" gradientTransform="matrix(.00000035 .156265 -.281277 .0000002 106.907377 -17.701043)" gradientUnits="userSpaceOnUse" r="21.166656" xlink:href="#b"/><linearGradient id="g"><stop offset="0" stop-color="#f44336"/><stop offset="1" stop-color="#ef5350"/></linearGradient><linearGradient id="h" gradientTransform="matrix(.150699 0 0 .434824 -11.708026 67.282692)" gradientUnits="userSpaceOnUse" x1="305.954559" x2="305.954559" xlink:href="#g" y1="-31.87709" y2="-135.329163"/><linearGradient id="i" gradientUnits="userSpaceOnUse" x1="31.753056" x2="31.753056" xlink:href="#g" y1="36.22223790428" y2="8.43831238278"/><path d="m9.261719 53.421875h44.984375v2.574219h-44.984375zm0 0" fill="url(#a)"/><path d="m54.246094 53.421875h5.289062v-2.644531h-5.289062zm0 0" fill="url(#c)"/><path d="m9.261719 53.421875h-5.292969v2.644531h5.292969zm0 0" fill="url(#d)"/><path d="m9.261719 53.421875h-5.292969v-2.644531h5.292969zm0 0" fill="url(#e)"/><path d="m54.246094 53.421875h5.289062v2.644531h-5.289062zm0 0" fill="url(#f)"/><path d="m6.613281 8.4375h50.277344c1.460937 0 2.644531 1.183594 2.644531 2.648438v39.691406c0 1.460937-1.183594 2.644531-2.644531 2.644531h-50.277344c-1.460937 0-2.644531-1.183594-2.644531-2.644531v-39.691406c0-1.464844 1.183594-2.648438 2.644531-2.648438zm0 0" fill="#eee"/><path d="m6.613281 8.4375c-1.464843 0-2.644531 1.179688-2.644531 2.648438v.328124c0-1.464843 1.179688-2.648437 2.644531-2.644531h50.277344c1.464844-.003906 2.644531 1.179688 2.644531 2.644531v-.328124c0-1.46875-1.179687-2.648438-2.644531-2.648438zm0 0" fill="#e6e6e6" fill-opacity=".937239"/><path d="m6.613281 8.4375c-1.464843 0-2.644531 1.179688-2.644531 2.648438v39.691406c0 1.464844 1.179688 2.644531 2.644531 2.644531h1.324219v-44.984375zm48.953125 0v44.984375h1.324219c1.464844 0 2.644531-1.179687 2.644531-2.644531v-39.691406c0-1.46875-1.179687-2.648438-2.644531-2.648438zm0 0" fill="url(#h)"/><path d="m444.488803 212.334192v-322.781676" fill="none" stroke="#212121" stroke-width="3" transform="matrix(.125012 0 0 .125012 0 26.877566)"/><path d="m63.493937 212.334192v-322.781676" fill="none" stroke="#212121" stroke-width="3" transform="matrix(.125012 0 0 .125012 0 26.877566)"/><path d="m6.613281 8.4375c-1.464843 0-2.644531 1.035156-2.644531 2.316406l25.136719 24.808594c.992187.992188 1.820312 1.488281 2.648437 1.488281.824219 0 1.652344-.496093 2.644532-1.488281l25.136718-24.808594c0-1.28125-1.179687-2.316406-2.644531-2.316406zm0 0" fill="url(#i)"/><path d="m7.277344 8.4375 22.710937 22.578125c.664063.679687 1.214844 1.019531 1.765625 1.019531.550782 0 1.101563-.339844 1.761719-1.019531l23.375-22.578125zm0 0" fill="#eee"/><path d="m4.40625 11.128906c-.277344.363282-.4375.804688-.4375 1.277344l25.136719 24.808594c.992187.992187 1.820312 1.488281 2.648437 1.488281.824219 0 1.652344-.496094 2.644532-1.488281l25.136718-24.808594c0-.472656-.160156-.914062-.4375-1.277344l-24.699218 24.371094c-.992188.992188-1.820313 1.488281-2.644532 1.488281-.828125 0-1.65625-.496093-2.648437-1.488281zm0 0" fill-opacity=".235294"/><path d="m3.96875 50.085938v.496093c0 1.46875 1.179688 2.648438 2.644531 2.648438h50.277344c1.464844 0 2.644531-1.179688 2.644531-2.648438v-.496093c0 1.46875-1.179687 2.648437-2.644531 2.648437h-50.277344c-1.464843 0-2.644531-1.179687-2.644531-2.648437zm0 0" fill-opacity=".235294"/><path d="m6.613281 8.667969c-1.464843 0-2.644531 1.03125-2.644531 2.316406l.054688.050781c.242187-1.058594 1.308593-1.851562 2.589843-1.851562h50.277344c1.285156 0 2.351563.792968 2.59375 1.851562l.050781-.050781c0-1.285156-1.179687-2.316406-2.644531-2.316406zm0 0" fill="#fff" fill-opacity=".392157"/><path d="m6.613281 8.25h-.003906c-.035156 0-.074219 0-.109375.003906-1.5.050782-2.71875 1.136719-2.71875 2.5l.015625.035156c-.011719.097657-.015625.195313-.015625.296876v39.691406c0 1.566406 1.265625 2.832031 2.832031 2.832031h50.277344c1.566406 0 2.832031-1.265625 2.832031-2.832031v-39.691406c0-.101563-.003906-.199219-.011718-.296876l.011718-.035156c0-1.363281-1.214844-2.449218-2.714844-2.5-.039062-.003906-.074218-.003906-.109374-.003906-.003907 0-.003907 0-.007813 0zm0 .375h.585938l22.65625 22.523438c.675781.695312 1.269531 1.074218 1.898437 1.074218.625 0 1.21875-.378906 1.894532-1.074218l23.316406-22.519532c1.203125.035156 2.179687.917969 2.355468 2.074219l-25.054687 24.722656v.003907c-.976563.976562-1.761719 1.433593-2.511719 1.433593-.753906 0-1.535156-.457031-2.515625-1.433593v-.003907l-25.050781-24.722656c.179688-1.179687 1.191406-2.078125 2.425781-2.078125zm1.117188 0h48.695312l-23.039062 22.253906-.003907.003906c-.648437.667969-1.15625.964844-1.628906.964844-.476562 0-.984375-.296875-1.628906-.964844h-.003906zm51.617187 2.578125v39.574219c0 1.363281-1.089844 2.457031-2.457031 2.457031h-50.277344c-1.363281 0-2.457031-1.09375-2.457031-2.457031v-39.574219l24.820312 24.492187c1.003907 1.003907 1.875 1.542969 2.777344 1.542969s1.769532-.539062 2.777344-1.542969v-.003906zm0 0" fill="#212121"/></svg>

<?xml version="1.0" encoding="UTF-8"?>
<svg xmlns="http://www.w3.org/2000/svg" xmlns:xlink="http://www.w3.org/1999/xlink" width="64px" height="64px" viewBox="0 0 64 64" version="1.1">
<defs>
<linearGradient id="linear0" gradientUnits="userSpaceOnUse" x1="254" y1="233.5" x2="254" y2="254.666672" gradientTransform="matrix(0.125012,0,0,0.125012,-0.00000763012,24.231486)">
<stop offset="0" style="stop-color:rgb(0%,0%,0%);stop-opacity:0.27451;"/>
<stop offset="1" style="stop-color:rgb(0%,0%,0%);stop-opacity:0;"/>
</linearGradient>
<radialGradient id="radial0" gradientUnits="userSpaceOnUse" cx="450.908936" cy="189.579361" fx="450.908936" fy="189.579361" r="21.166656" gradientTransform="matrix(0.000000348341,-0.156265,-0.281277,-0.000000203077,106.907381,124.54458)">
<stop offset="0" style="stop-color:rgb(0%,0%,0%);stop-opacity:0.313726;"/>
<stop offset="0.222222" style="stop-color:rgb(0%,0%,0%);stop-opacity:0.27451;"/>
<stop offset="1" style="stop-color:rgb(0%,0%,0%);stop-opacity:0;"/>
</radialGradient>
<radialGradient id="radial1" gradientUnits="userSpaceOnUse" cx="450.908936" cy="189.579361" fx="450.908936" fy="189.579361" r="21.166656" gradientTransform="matrix(-0.000000348341,0.156265,0.281277,0.000000203077,-43.401323,-17.701042)">
<stop offset="0" style="stop-color:rgb(0%,0%,0%);stop-opacity:0.313726;"/>
<stop offset="0.222222" style="stop-color:rgb(0%,0%,0%);stop-opacity:0.27451;"/>
<stop offset="1" style="stop-color:rgb(0%,0%,0%);stop-opacity:0;"/>
</radialGradient>
<radialGradient id="radial2" gradientUnits="userSpaceOnUse" cx="450.908936" cy="189.579361" fx="450.908936" fy="189.579361" r="21.166656" gradientTransform="matrix(-0.000000348341,-0.156265,0.281277,-0.000000203077,-43.401323,124.54458)">
<stop offset="0" style="stop-color:rgb(0%,0%,0%);stop-opacity:0.313726;"/>
<stop offset="0.222222" style="stop-color:rgb(0%,0%,0%);stop-opacity:0.27451;"/>
<stop offset="1" style="stop-color:rgb(0%,0%,0%);stop-opacity:0;"/>
</radialGradient>
<radialGradient id="radial3" gradientUnits="userSpaceOnUse" cx="450.908936" cy="189.579361" fx="450.908936" fy="189.579361" r="21.166656" gradientTransform="matrix(0.000000348341,0.156265,-0.281277,0.000000203077,106.907377,-17.701043)">
<stop offset="0" style="stop-color:rgb(0%,0%,0%);stop-opacity:0.313726;"/>
<stop offset="0.222222" style="stop-color:rgb(0%,0%,0%);stop-opacity:0.27451;"/>
<stop offset="1" style="stop-color:rgb(0%,0%,0%);stop-opacity:0;"/>
</radialGradient>
<linearGradient id="linear1" gradientUnits="userSpaceOnUse" x1="305.954559" y1="-31.87709" x2="305.954559" y2="-135.329163" gradientTransform="matrix(0.150699,0,0,0.434824,-11.708026,67.282692)">
<stop offset="0" style="stop-color:rgb(95.686275%,26.274511%,21.176471%);stop-opacity:1;"/>
<stop offset="1" style="stop-color:rgb(93.725491%,32.549021%,31.37255%);stop-opacity:1;"/>
</linearGradient>
<linearGradient id="linear2" gradientUnits="userSpaceOnUse" x1="960" y1="1095.118164" x2="960" y2="255.118118" gradientTransform="matrix(0.0330761,0,0,0.0330761,0,0)">
<stop offset="0" style="stop-color:rgb(95.686275%,26.274511%,21.176471%);stop-opacity:1;"/>
<stop offset="1" style="stop-color:rgb(93.725491%,32.549021%,31.37255%);stop-opacity:1;"/>
</linearGradient>
</defs>
<g id="surface1">
<path style=" stroke:none;fill-rule:nonzero;fill:url(#linear0);" d="M 9.261719 53.421875 L 54.246094 53.421875 L 54.246094 55.996094 L 9.261719 55.996094 Z M 9.261719 53.421875 "/>
<path style=" stroke:none;fill-rule:nonzero;fill:url(#radial0);" d="M 54.246094 53.421875 L 59.535156 53.421875 L 59.535156 50.777344 L 54.246094 50.777344 Z M 54.246094 53.421875 "/>
<path style=" stroke:none;fill-rule:nonzero;fill:url(#radial1);" d="M 9.261719 53.421875 L 3.96875 53.421875 L 3.96875 56.066406 L 9.261719 56.066406 Z M 9.261719 53.421875 "/>
<path style=" stroke:none;fill-rule:nonzero;fill:url(#radial2);" d="M 9.261719 53.421875 L 3.96875 53.421875 L 3.96875 50.777344 L 9.261719 50.777344 Z M 9.261719 53.421875 "/>
<path style=" stroke:none;fill-rule:nonzero;fill:url(#radial3);" d="M 54.246094 53.421875 L 59.535156 53.421875 L 59.535156 56.066406 L 54.246094 56.066406 Z M 54.246094 53.421875 "/>
<path style=" stroke:none;fill-rule:nonzero;fill:rgb(93.333334%,93.333334%,93.333334%);fill-opacity:1;" d="M 6.613281 8.4375 L 56.890625 8.4375 C 58.351562 8.4375 59.535156 9.621094 59.535156 11.085938 L 59.535156 50.777344 C 59.535156 52.238281 58.351562 53.421875 56.890625 53.421875 L 6.613281 53.421875 C 5.152344 53.421875 3.96875 52.238281 3.96875 50.777344 L 3.96875 11.085938 C 3.96875 9.621094 5.152344 8.4375 6.613281 8.4375 Z M 6.613281 8.4375 "/>
<path style=" stroke:none;fill-rule:nonzero;fill:rgb(90.196079%,90.196079%,90.196079%);fill-opacity:0.937239;" d="M 6.613281 8.4375 C 5.148438 8.4375 3.96875 9.617188 3.96875 11.085938 L 3.96875 11.414062 C 3.96875 9.949219 5.148438 8.765625 6.613281 8.769531 L 56.890625 8.769531 C 58.355469 8.765625 59.535156 9.949219 59.535156 11.414062 L 59.535156 11.085938 C 59.535156 9.617188 58.355469 8.4375 56.890625 8.4375 Z M 6.613281 8.4375 "/>
<path style=" stroke:none;fill-rule:nonzero;fill:url(#linear1);" d="M 6.613281 8.4375 C 5.148438 8.4375 3.96875 9.617188 3.96875 11.085938 L 3.96875 50.777344 C 3.96875 52.242188 5.148438 53.421875 6.613281 53.421875 L 7.9375 53.421875 L 7.9375 8.4375 Z M 55.566406 8.4375 L 55.566406 53.421875 L 56.890625 53.421875 C 58.355469 53.421875 59.535156 52.242188 59.535156 50.777344 L 59.535156 11.085938 C 59.535156 9.617188 58.355469 8.4375 56.890625 8.4375 Z M 55.566406 8.4375 "/>
<path style="fill:none;stroke-width:3;stroke-linecap:butt;stroke-linejoin:miter;stroke:rgb(12.941177%,12.941177%,12.941177%);stroke-opacity:1;stroke-miterlimit:4;" d="M 444.488803 212.334192 L 444.488803 -110.447484 " transform="matrix(0.125012,0,0,0.125012,0,26.877566)"/>
<path style="fill:none;stroke-width:3;stroke-linecap:butt;stroke-linejoin:miter;stroke:rgb(12.941177%,12.941177%,12.941177%);stroke-opacity:1;stroke-miterlimit:4;" d="M 63.493937 212.334192 L 63.493937 -110.447484 " transform="matrix(0.125012,0,0,0.125012,0,26.877566)"/>
<path style=" stroke:none;fill-rule:nonzero;fill:url(#linear2);" d="M 6.613281 8.4375 C 5.148438 8.4375 3.96875 9.472656 3.96875 10.753906 L 29.105469 35.5625 C 30.097656 36.554688 30.925781 37.050781 31.753906 37.050781 C 32.578125 37.050781 33.40625 36.554688 34.398438 35.5625 L 59.535156 10.753906 C 59.535156 9.472656 58.355469 8.4375 56.890625 8.4375 Z M 6.613281 8.4375 "/>
<path style=" stroke:none;fill-rule:nonzero;fill:rgb(93.333334%,93.333334%,93.333334%);fill-opacity:1;" d="M 7.277344 8.4375 L 29.988281 31.015625 C 30.652344 31.695312 31.203125 32.035156 31.753906 32.035156 C 32.304688 32.035156 32.855469 31.695312 33.515625 31.015625 L 56.890625 8.4375 Z M 7.277344 8.4375 "/>
<path style=" stroke:none;fill-rule:nonzero;fill:rgb(0%,0%,0%);fill-opacity:0.235294;" d="M 4.40625 11.128906 C 4.128906 11.492188 3.96875 11.933594 3.96875 12.40625 L 29.105469 37.214844 C 30.097656 38.207031 30.925781 38.703125 31.753906 38.703125 C 32.578125 38.703125 33.40625 38.207031 34.398438 37.214844 L 59.535156 12.40625 C 59.535156 11.933594 59.375 11.492188 59.097656 11.128906 L 34.398438 35.5 C 33.40625 36.492188 32.578125 36.988281 31.753906 36.988281 C 30.925781 36.988281 30.097656 36.492188 29.105469 35.5 Z M 4.40625 11.128906 "/>
<path style=" stroke:none;fill-rule:nonzero;fill:rgb(0%,0%,0%);fill-opacity:0.235294;" d="M 3.96875 50.085938 L 3.96875 50.582031 C 3.96875 52.050781 5.148438 53.230469 6.613281 53.230469 L 56.890625 53.230469 C 58.355469 53.230469 59.535156 52.050781 59.535156 50.582031 L 59.535156 50.085938 C 59.535156 51.554688 58.355469 52.734375 56.890625 52.734375 L 6.613281 52.734375 C 5.148438 52.734375 3.96875 51.554688 3.96875 50.085938 Z M 3.96875 50.085938 "/>
<path style=" stroke:none;fill-rule:nonzero;fill:rgb(100%,100%,100%);fill-opacity:0.392157;" d="M 6.613281 8.667969 C 5.148438 8.667969 3.96875 9.699219 3.96875 10.984375 L 4.023438 11.035156 C 4.265625 9.976562 5.332031 9.183594 6.613281 9.183594 L 56.890625 9.183594 C 58.175781 9.183594 59.242188 9.976562 59.484375 11.035156 L 59.535156 10.984375 C 59.535156 9.699219 58.355469 8.667969 56.890625 8.667969 Z M 6.613281 8.667969 "/>
<path style=" stroke:none;fill-rule:nonzero;fill:rgb(12.941177%,12.941177%,12.941177%);fill-opacity:1;" d="M 6.613281 8.25 C 6.613281 8.25 6.609375 8.25 6.609375 8.25 C 6.574219 8.25 6.535156 8.25 6.5 8.253906 C 5 8.304688 3.78125 9.390625 3.78125 10.753906 L 3.796875 10.789062 C 3.785156 10.886719 3.78125 10.984375 3.78125 11.085938 L 3.78125 50.777344 C 3.78125 52.34375 5.046875 53.609375 6.613281 53.609375 L 56.890625 53.609375 C 58.457031 53.609375 59.722656 52.34375 59.722656 50.777344 L 59.722656 11.085938 C 59.722656 10.984375 59.71875 10.886719 59.710938 10.789062 L 59.722656 10.753906 C 59.722656 9.390625 58.507812 8.304688 57.007812 8.253906 C 56.96875 8.25 56.933594 8.25 56.898438 8.25 C 56.894531 8.25 56.894531 8.25 56.890625 8.25 Z M 6.613281 8.625 L 7.199219 8.625 L 29.855469 31.148438 C 30.53125 31.84375 31.125 32.222656 31.753906 32.222656 C 32.378906 32.222656 32.972656 31.84375 33.648438 31.148438 L 56.964844 8.628906 C 58.167969 8.664062 59.144531 9.546875 59.320312 10.703125 L 34.265625 35.425781 L 34.265625 35.429688 C 33.289062 36.40625 32.503906 36.863281 31.753906 36.863281 C 31 36.863281 30.21875 36.40625 29.238281 35.429688 L 29.238281 35.425781 L 4.1875 10.703125 C 4.367188 9.523438 5.378906 8.625 6.613281 8.625 Z M 7.730469 8.625 L 56.425781 8.625 L 33.386719 30.878906 L 33.382812 30.882812 C 32.734375 31.550781 32.226562 31.847656 31.753906 31.847656 C 31.277344 31.847656 30.769531 31.550781 30.125 30.882812 L 30.121094 30.882812 Z M 59.347656 11.203125 L 59.347656 50.777344 C 59.347656 52.140625 58.257812 53.234375 56.890625 53.234375 L 6.613281 53.234375 C 5.25 53.234375 4.15625 52.140625 4.15625 50.777344 L 4.15625 11.203125 L 28.976562 35.695312 C 29.980469 36.699219 30.851562 37.238281 31.753906 37.238281 C 32.65625 37.238281 33.523438 36.699219 34.53125 35.695312 L 34.53125 35.691406 Z M 59.347656 11.203125 "/>
</g>
</svg>
